X: 1
T: Galician March
M: 2/4
L: 1/8
C: Trad./Arr. Gary West
K: Amix
c/d/|ee aa|e/f/e/c/ Ac|B/A/B/c/ d/B/c/d/|e/f/e/c/ A/B/c/d/|
ee aa|e/f/e/c/ Ac|B/A/B/c/ dB|(A2 A/)A/c/d/|
ee aa|e/f/e/c/ A3/2c/|B/A/B/c/ d/B/c/d/|e/f/e/c/ A/B/c/d/|
ee aa|e/f/e/c/ Ac|B/A/B/c/ dB|(A2 A)||
A|BA/B/ cB/c/|dc BA/B/|cB/c/ dc/d/|ee c//B//A/c/d/|
aa fgaf|efec Ac|B/A/B/c/ dB|(A2 A)A|
BA/B/ cB/c/|dc BA/B/|cB/c/ dc/d/|ee c//B//A/d/e/|
e/a/a/a/ f/g/a/f/|e/f/e/c/ Ac|B/A/B/c/ dB|(A2 A2)||
